X:11479
T:Musical priest, The
R:Reel
O:Ireland
M:4/4
K:Bm
BA|\
FB BA B2Bd|cB Af ec BA|FB BA BA Bd|cB Ac B2::
Bc|\
d2 dc df ed|(3cBA eA fA eA|\
dc Bc de fb|af ec B2::
Bc|\
dB (3BBB ba fb|af ec AB ce|\
dB (3BBB ba fb|af ec B2:|



Xuacu Amieva 56
M:6/8
L:1/8
Q:3/8=112
K:Cm
G2 G
|: G2 c =B2 ~=A|=B2 ~G G2 A|~G2 F G2 A|~G2 G G2 G :|
|G2 c =B2 ~=A|=B2 ~G G2 A|~G2 F ~E2 ~D|C6|
|: C3 DEF|G5 A|~G2 F G2 A|~F3 E2 ~D|C3 DEF|G5 A|~G2 F E2 ~D|[1 C6 :|[2 C3 z3|



